build/assets/img/svg/inst-footer.svg

<svg width="16" height="16" viewBox="0 0 16 16" fill="none" xmlns="http://www.w3.org/2000/svg">
<path d="M8 15.5C5.8 15.5 5.5 15.5 4.66667 15.45C4.06332 15.4381 3.46621 15.3254 2.9 15.1167C2.4466 14.9435 2.03485 14.6765 1.69166 14.3333C1.34846 13.9901 1.08154 13.5784 0.908333 13.125C0.688297 12.5524 0.567129 11.9465 0.55 11.3333C0.5 10.5 0.5 10.2083 0.5 8C0.5 5.79167 0.5 5.5 0.55 4.66667C0.561924 4.06332 0.674587 3.46621 0.883333 2.9C1.05357 2.44198 1.31915 2.02535 1.6625 1.67769C2.00586 1.33003 2.41914 1.05927 2.875 0.883333C3.44911 0.671832 4.0549 0.559126 4.66667 0.55C5.5 0.5 5.79167 0.5 8 0.5C10.2083 0.5 10.5 0.5 11.3333 0.55C11.9367 0.561924 12.5338 0.674587 13.1 0.883333C13.5534 1.05654 13.9651 1.32346 14.3083 1.66666C14.6515 2.00985 14.9185 2.4216 15.0917 2.875C15.3117 3.44762 15.4329 4.05346 15.45 4.66667C15.45 5.5 15.5 5.825 15.5 8C15.5 10.175 15.5 10.5 15.45 11.3333C15.4381 11.9367 15.3254 12.5338 15.1167 13.1C14.9435 13.5534 14.6765 13.9651 14.3333 14.3083C13.9901 14.6515 13.5784 14.9185 13.125 15.0917C12.5588 15.3004 11.9617 15.4131 11.3583 15.425C10.5 15.5 10.2 15.5 8 15.5Z" stroke="white" stroke-width="0.75" stroke-linecap="round" stroke-linejoin="round"/>
<path d="M8.00007 10.5485C7.496 10.5485 7.00324 10.399 6.58412 10.119C6.16499 9.83891 5.83832 9.44086 5.64542 8.97516C5.45252 8.50945 5.40205 7.997 5.50039 7.50261C5.59873 7.00822 5.84147 6.55409 6.1979 6.19766C6.55434 5.84122 7.00846 5.59849 7.50285 5.50014C7.99724 5.4018 8.50969 5.45228 8.9754 5.64518C9.44111 5.83808 9.83915 6.16475 10.1192 6.58387C10.3993 7.003 10.5487 7.49575 10.5487 7.99983C10.5487 8.67577 10.2802 9.32403 9.80224 9.802C9.32428 10.28 8.67602 10.5485 8.00007 10.5485Z" stroke="white" stroke-width="0.75" stroke-linecap="round" stroke-linejoin="round"/>
<path d="M12.9225 3.5542C12.9225 3.83034 12.6986 4.0542 12.4225 4.0542C12.1463 4.0542 11.9225 3.83034 11.9225 3.5542C11.9225 3.27806 12.1463 3.0542 12.4225 3.0542C12.6986 3.0542 12.9225 3.27806 12.9225 3.5542Z" fill="black" stroke="white"/>
</svg>

<svg width="16" height="16" fill="none" xmlns="http://www.w3.org/2000/svg"><path d="M8 15.5c-2.2 0-2.5 0-3.333-.05a5.417 5.417 0 01-1.767-.333 3.45 3.45 0 01-1.992-1.992 5.417 5.417 0 01-.358-1.792C.5 10.5.5 10.208.5 8s0-2.5.05-3.333A5.44 5.44 0 01.883 2.9 3.45 3.45 0 012.875.883 5.417 5.417 0 014.667.55C5.5.5 5.792.5 8 .5s2.5 0 3.333.05A5.44 5.44 0 0113.1.883a3.45 3.45 0 011.992 1.992c.22.573.34 1.178.358 1.792 0 .833.05 1.158.05 3.333 0 2.175 0 2.5-.05 3.333a5.417 5.417 0 01-.333 1.767 3.45 3.45 0 01-1.992 1.992 5.417 5.417 0 01-1.767.333C10.5 15.5 10.2 15.5 8 15.5z" stroke="#fff" stroke-width=".75" stroke-linecap="round" stroke-linejoin="round"/><path d="M8 10.549A2.549 2.549 0 118 5.45a2.549 2.549 0 010 5.099z" stroke="#fff" stroke-width=".75" stroke-linecap="round" stroke-linejoin="round"/><path d="M12.922 3.554a.5.5 0 11-1 0 .5.5 0 011 0z" fill="#000" stroke="#fff"/></svg>
